icons/new/svg/smudge_detailed.svg

<svg xmlns="http://www.w3.org/2000/svg" viewBox="0 0 24 24" baseProfile="tiny"><path fill="none" d="M0 0h24v24H0z"/><path d="M246.837 92.063c-.216 1.721-1.753 4.259-2.512 6.299-.425 1.822 2.811 2.386 3.942-.016.453-1.081 1.115-2.36 1.439-3.098.468-1.062.739-.885.895-.897.177-.014 1.788-.213 2.792-1.166.504-.998 1.256-1.967 2.015-3.097.774-1.152 1.655-1.758 2.04-3.097.853-2.115 1.223-4.604-.025-6.193-.671-.855-2.019-1.638-3.023-2.065-.865-.368-2.032-.972-2.979-1.032-1.175-.074-2.261 1.772-4.074 4.168-.984.915-2.386 4.418-3.022 5.729-.16 1.386.86 2.099.92 2.4.006.034.118.383.147.655.128 1.213.834 1.247.948 1.41" fill="url(#_Linear2)" transform="matrix(1.08696 0 0 1.06099 -259.225 -82.239)"/><path d="M10 15.201c-.806 1.768-2.527 5.228-3.165 6.528-.917 1.865 2.282 2.177 3.165.471.197-.502 1.689-3.408 2-4 .649-1.23.978-1.49 1.113-1.26.045-.115 1.861.611 2.857-.78.5-.967 1.277-1.865 2.03-2.96.138-.2.279-.383.42-.556.646-.793 1.291-1.379 1.605-2.443.846-2.05 1.213-4.46-.025-6-.666-.828-2.004-1.587-3-2-.859-.357-2.017-.942-2.957-1C12.877 1.129 11.8 2.917 10 5.239c-.977.886-2.324 4.293-2.37 4.55-.026.145-.575 1.203-.63 1.412-.041 1.176.686 1.046.919 1.545.144.31-.069 1.156.081 1.454.42.838.838.996 1.027 1.001" fill="#e3ac9b"/><path d="M10 15.201c-.806 1.768-2.527 5.228-3.165 6.528-.917 1.865 2.282 2.177 3.165.471.197-.502 1.689-3.408 2-4 .649-1.23.978-1.49 1.113-1.26.045-.115 1.861.611 2.857-.78.5-.967 1.277-1.865 2.03-2.96.138-.2.279-.383.42-.556.646-.793 1.291-1.379 1.605-2.443.846-2.05 1.213-4.46-.025-6-.666-.828-2.004-1.587-3-2-.859-.357-2.017-.942-2.957-1C12.877 1.129 11.8 2.917 10 5.239c-.977.886-2.324 4.293-2.37 4.55-.026.145-.575 1.203-.63 1.412-.041 1.176.686 1.046.919 1.545.144.31-.069 1.156.081 1.454.42.838.838.996 1.027 1.001" fill="#e3ac9b"/><path d="M247.347 92.153c-.812 1.825-2.546 5.396-3.189 6.738-.924 1.926 2.299 2.248 3.189.487.199-.519 1.702-3.518 2.016-4.129.653-1.27.985-1.539 1.121-1.301.045-.119 1.875.631 2.879-.805.504-.998 1.286-1.925 2.045-3.055.139-.207.281-.396.424-.575.65-.818 1.3-1.423 1.616-2.522.853-2.115 1.223-4.604-.025-6.193-.671-.855-2.019-1.638-3.023-2.065-.865-.368-2.032-.972-2.979-1.032-1.175-.074-2.261 1.772-4.074 4.168-.984.915-2.341 4.432-2.387 4.697-.027.15-.58 1.242-.635 1.458-.042 1.214.691 1.08.925 1.595.146.319-.069 1.193.082 1.501.423.865.844 1.028 1.035 1.033" fill="url(#_Linear3)" transform="matrix(.99246 0 0 .96874 -235.483 -74.072)"/><path d="M247.347 92.153c-.812 1.825-2.546 5.396-3.189 6.738-.924 1.926 2.299 2.248 3.189.487.199-.519 1.702-3.518 2.016-4.129.653-1.27.985-1.539 1.121-1.301.045-.119 1.875.631 2.879-.805.504-.998 1.286-1.925 2.045-3.055.139-.207.281-.396.424-.575.65-.818 1.3-1.423 1.616-2.522.853-2.115 1.223-4.604-.025-6.193-.671-.855-2.019-1.638-3.023-2.065-.865-.368-2.032-.972-2.979-1.032-1.175-.074-2.261 1.772-4.074 4.168-.984.915-2.341 4.432-2.387 4.697-.027.15-.58 1.242-.635 1.458-.042 1.214.691 1.08.925 1.595.146.319-.069 1.193.082 1.501.423.865.844 1.028 1.035 1.033" fill="url(#_Linear4)" transform="matrix(.99246 0 0 .96874 -235.483 -74.072)"/><path d="M245.616 92.951c.257-.744 1.03-2.161 1.12-2.289" fill="#c78c84" stroke="#622b24" stroke-width=".41" stroke-linecap="round" transform="matrix(.98657 0 0 1.03843 -234.43 -83.794)"/><path d="M244.396 96.916c.76-1.417 2.371-5.011 2.549-5.264" fill="none" stroke="#622b24" stroke-width=".44" stroke-linecap="round" transform="matrix(.9576 0 0 .92044 -225.195 -72.16)"/><path d="M70.563 176.828c.134-.583.502-1.15.723-1.437.635-.828 1.305-1.695 1.497-1.274l-.024.139c-.28.686-.544 1.301-.732 1.93-.432 1.045-1.342.593-1.464.642z" fill="url(#_Linear5)" transform="matrix(2.1689 0 0 1.2523 -140.219 -204.437)"/><defs><linearGradient id="_Linear2" x2="1" gradientUnits="userSpaceOnUse" gradientTransform="matrix(-1.83999 -4.7126 4.59997 -1.88504 252.286 89.954)"><stop offset="0" stop-color="#622b24"/><stop offset="1" stop-color="#c78d84"/></linearGradient><linearGradient id="_Linear3" x2="1" gradientUnits="userSpaceOnUse" gradientTransform="matrix(-3.98249 11.2869 -5.67068 -7.92675 255.496 84.58)"><stop offset="0" stop-color="#d59586"/><stop offset="1" stop-color="#d59586" stop-opacity="0"/></linearGradient><linearGradient id="_Linear4" x2="1" gradientUnits="userSpaceOnUse" gradientTransform="matrix(5.63877 -15.3657 12.9413 6.69513 246.212 101.144)"><stop offset="0" stop-color="#fefbe5" stop-opacity=".406"/><stop offset="1" stop-color="#fefbe5" stop-opacity="0"/></linearGradient><linearGradient id="_Linear5" x2="1" gradientUnits="userSpaceOnUse" gradientTransform="matrix(.44092 .4464 -.25775 .76364 71.125 175.74)"><stop offset="0" stop-color="#944e45"/><stop offset=".6" stop-color="#9d5950" stop-opacity=".82"/><stop offset=".8" stop-color="#b27269" stop-opacity=".412"/><stop offset="1" stop-color="#c78b82" stop-opacity="0"/></linearGradient></defs></svg>

<?xml version="1.0"?>
<!-- Converted with SVG Converter - Version 0.9.6 (Compiled Fri Dec  1 22:15:06 2017) - Copyright (C) 2011 Nokia -->
<svg xmlns="http://www.w3.org/2000/svg" viewBox="0 0 24 24" width="100%" xml:space="preserve" version="1.1" xmlns:xlink="http://www.w3.org/1999/xlink" height="100%" baseProfile="tiny">
 <g transform="matrix(1,0,0,1,-272,-121)">
  <g transform="matrix(1,0,0,1,34,68)">
   <g id="detailed">
    <rect style="fill:none;" width="24" id="smudge_detailed" y="53" x="238" height="24"/>
    <g>
     <g transform="matrix(1.08696,2.83031e-17,-2.93246e-17,1.06099,-21.2252,-29.2385)">
      <path style="fill:url(#_Linear2);" d="M246.837,92.063C246.621,93.784 245.084,96.322 244.325,98.362C243.9,100.184 247.136,100.748 248.267,98.346C248.72,97.265 249.382,95.986 249.706,95.248C250.174,94.186 250.445,94.363 250.601,94.351C250.778,94.337 252.389,94.138 253.393,93.185C253.897,92.187 254.649,91.218 255.408,90.088C256.182,88.936 257.063,88.33 257.448,86.991C258.301,84.876 258.671,82.387 257.423,80.798C256.752,79.943 255.404,79.16 254.4,78.733C253.535,78.365 252.368,77.761 251.421,77.701C250.246,77.627 249.16,79.473 247.347,81.869C246.363,82.784 244.961,86.287 244.325,87.598C244.165,88.984 245.185,89.697 245.245,89.998C245.251,90.032 245.363,90.381 245.392,90.653C245.52,91.866 246.226,91.9 246.34,92.063"/>
     </g>
     <g transform="matrix(0.992464,2.58425e-17,-2.67751e-17,0.968744,2.5168,-21.0715)">
      <path style="fill:rgb(227,172,155);" d="M247.347,92.153C246.535,93.978 244.801,97.549 244.158,98.891C243.234,100.817 246.457,101.139 247.347,99.378C247.546,98.859 249.049,95.86 249.363,95.249C250.016,93.979 250.348,93.71 250.484,93.948C250.529,93.829 252.359,94.579 253.363,93.143C253.867,92.145 254.649,91.218 255.408,90.088C255.547,89.881 255.689,89.692 255.832,89.513C256.482,88.695 257.132,88.09 257.448,86.991C258.301,84.876 258.671,82.387 257.423,80.798C256.752,79.943 255.404,79.16 254.4,78.733C253.535,78.365 252.368,77.761 251.421,77.701C250.246,77.627 249.16,79.473 247.347,81.869C246.363,82.784 245.006,86.301 244.96,86.566C244.933,86.716 244.38,87.808 244.325,88.024C244.283,89.238 245.016,89.104 245.25,89.619C245.396,89.938 245.181,90.812 245.332,91.12C245.755,91.985 246.176,92.148 246.367,92.153"/>
     </g>
     <g transform="matrix(0.992464,2.58425e-17,-2.67751e-17,0.968744,2.5168,-21.0715)">
      <path style="fill:rgb(227,172,155);" d="M247.347,92.153C246.535,93.978 244.801,97.549 244.158,98.891C243.234,100.817 246.457,101.139 247.347,99.378C247.546,98.859 249.049,95.86 249.363,95.249C250.016,93.979 250.348,93.71 250.484,93.948C250.529,93.829 252.359,94.579 253.363,93.143C253.867,92.145 254.649,91.218 255.408,90.088C255.547,89.881 255.689,89.692 255.832,89.513C256.482,88.695 257.132,88.09 257.448,86.991C258.301,84.876 258.671,82.387 257.423,80.798C256.752,79.943 255.404,79.16 254.4,78.733C253.535,78.365 252.368,77.761 251.421,77.701C250.246,77.627 249.16,79.473 247.347,81.869C246.363,82.784 245.006,86.301 244.96,86.566C244.933,86.716 244.38,87.808 244.325,88.024C244.283,89.238 245.016,89.104 245.25,89.619C245.396,89.938 245.181,90.812 245.332,91.12C245.755,91.985 246.176,92.148 246.367,92.153"/>
     </g>
     <g transform="matrix(0.992464,2.58425e-17,-2.67751e-17,0.968744,2.5168,-21.0715)">
      <path style="fill:url(#_Linear3);" d="M247.347,92.153C246.535,93.978 244.801,97.549 244.158,98.891C243.234,100.817 246.457,101.139 247.347,99.378C247.546,98.859 249.049,95.86 249.363,95.249C250.016,93.979 250.348,93.71 250.484,93.948C250.529,93.829 252.359,94.579 253.363,93.143C253.867,92.145 254.649,91.218 255.408,90.088C255.547,89.881 255.689,89.692 255.832,89.513C256.482,88.695 257.132,88.09 257.448,86.991C258.301,84.876 258.671,82.387 257.423,80.798C256.752,79.943 255.404,79.16 254.4,78.733C253.535,78.365 252.368,77.761 251.421,77.701C250.246,77.627 249.16,79.473 247.347,81.869C246.363,82.784 245.006,86.301 244.96,86.566C244.933,86.716 244.38,87.808 244.325,88.024C244.283,89.238 245.016,89.104 245.25,89.619C245.396,89.938 245.181,90.812 245.332,91.12C245.755,91.985 246.176,92.148 246.367,92.153"/>
     </g>
     <g transform="matrix(0.992464,2.58425e-17,-2.67751e-17,0.968744,2.5168,-21.0715)">
      <path style="fill:url(#_Linear4);" d="M247.347,92.153C246.535,93.978 244.801,97.549 244.158,98.891C243.234,100.817 246.457,101.139 247.347,99.378C247.546,98.859 249.049,95.86 249.363,95.249C250.016,93.979 250.348,93.71 250.484,93.948C250.529,93.829 252.359,94.579 253.363,93.143C253.867,92.145 254.649,91.218 255.408,90.088C255.547,89.881 255.689,89.692 255.832,89.513C256.482,88.695 257.132,88.09 257.448,86.991C258.301,84.876 258.671,82.387 257.423,80.798C256.752,79.943 255.404,79.16 254.4,78.733C253.535,78.365 252.368,77.761 251.421,77.701C250.246,77.627 249.16,79.473 247.347,81.869C246.363,82.784 245.006,86.301 244.96,86.566C244.933,86.716 244.38,87.808 244.325,88.024C244.283,89.238 245.016,89.104 245.25,89.619C245.396,89.938 245.181,90.812 245.332,91.12C245.755,91.985 246.176,92.148 246.367,92.153"/>
     </g>
     <g transform="matrix(0.986567,-5.68173e-33,5.91113e-33,1.03843,3.56967,-30.794)">
      <path style="fill:rgb(199,140,132);stroke:rgb(98,43,36);stroke-width:0.41px;stroke-linecap:round;" d="M245.616,92.951C245.873,92.207 246.646,90.79 246.736,90.662"/>
     </g>
     <g transform="matrix(0.957602,0,0,0.92044,12.8053,-19.1596)">
      <path style="fill:none;stroke:rgb(98,43,36);stroke-width:0.44px;stroke-linecap:round;" d="M244.396,96.916C245.156,95.499 246.767,91.905 246.945,91.652"/>
     </g>
     <g transform="matrix(2.1689,0,0,1.2523,97.7811,-151.437)">
      <path style="fill:url(#_Linear5);" d="M70.563,176.828C70.697,176.245 71.065,175.678 71.286,175.391C71.921,174.563 72.591,173.696 72.783,174.117L72.759,174.256C72.479,174.942 72.215,175.557 72.027,176.186C71.595,177.231 70.685,176.779 70.563,176.828Z"/>
     </g>
    </g>
   </g>
  </g>
 </g>
 <defs>
  <linearGradient x1="0" id="_Linear2" x2="1" gradientUnits="userSpaceOnUse" y2="0" y1="0" gradientTransform="matrix(-1.83999,-4.7126,4.59997,-1.88504,252.286,89.9535)">
   <stop style="stop-color:rgb(98,43,36);stop-opacity:1" offset="0.0"/>
   <stop style="stop-color:rgb(199,141,132);stop-opacity:1" offset="1.0"/>
  </linearGradient>
  <linearGradient x1="0" id="_Linear3" x2="1" gradientUnits="userSpaceOnUse" y2="0" y1="0" gradientTransform="matrix(-3.98249,11.2869,-5.67068,-7.92675,255.496,84.5805)">
   <stop style="stop-color:rgb(213,149,134);stop-opacity:1" offset="0.0"/>
   <stop style="stop-color:rgb(213,149,134);stop-opacity:0" offset="1.0"/>
  </linearGradient>
  <linearGradient x1="0" id="_Linear4" x2="1" gradientUnits="userSpaceOnUse" y2="0" y1="0" gradientTransform="matrix(5.63877,-15.3657,12.9413,6.69513,246.212,101.144)">
   <stop style="stop-color:rgb(254,251,229);stop-opacity:0.40578" offset="0.0"/>
   <stop style="stop-color:rgb(254,251,229);stop-opacity:0" offset="1.0"/>
  </linearGradient>
  <linearGradient x1="0" id="_Linear5" x2="1" gradientUnits="userSpaceOnUse" y2="0" y1="0" gradientTransform="matrix(0.440918,0.446398,-0.257746,0.76364,71.1249,175.74)">
   <stop style="stop-color:rgb(148,78,69);stop-opacity:1" offset="0.0"/>
   <stop style="stop-color:rgb(157,89,80);stop-opacity:0.819608" offset="0.6"/>
   <stop style="stop-color:rgb(178,114,105);stop-opacity:0.411765" offset="0.8"/>
   <stop style="stop-color:rgb(199,139,130);stop-opacity:0" offset="1.0"/>
  </linearGradient>
 </defs>
</svg>
